X: 506
T:Dowd's number 9
M:4/4
L:1/8
S:Martin Glynn
R:Reel
N:Posted to the woodenflute mailing list April 2002
Z:Chas Blacker
K:D
DFAF GFEF|DEFA dABA|~F3A ~G3B|AGFD EGFE|DFAF GFEF|DEFA dABA|~F3A ~G3B|AG
FD EDD2:|]  f2df g3g|fedf ecA2|f2df gfec|dcde fdd2|dfaf gfeg|fedf ecAF|~G3B
ABdB|AGFD EDD2:|]

